!!!COM: Ockeghem, Johannes
!!!CDT: ~1425-1497/02/06
!!!OTL: Fors seullement contre
!!!AGN: Song; Chanson
!!!SCT: Ock3004
!!!SCA: Ock3004
!!!voices: 3
**kern	**text	**kern	**text	**kern	**text
*staff3	*staff3	*staff2	*staff2	*staff1	*staff1
*Ivox	*	*Ivox	*	*Ivox	*
*I"Contra	*	*I"Tenor	*	*I"Canon Royal	*
*I'C	*	*I'T	*	*I'CR	*
*clefF4	*	*clefGv2	*	*clefG2	*
*k[b-]	*	*k[b-]	*	*k[b-]	*
*M2/1	*	*M2/1	*	*M2/1	*
*met(C|)	*	*met(C|)	*	*met(C|)	*
*>A	*>A	*>A	*>A	*>A	*>A
=1-	=1-	=1-	=1-	=1-	=1-
!!LO:TX:X=-40:Z=8:t=Form&colon; rondeau
!LO:TX:Z=4:i:t=Ct = highest voice of Ockeghem's Fors seulement l'attente, down a 12th	!	!	!	!	!
0D	Fors	0d	Fors	0a	Fors
=2	=2	=2	=2	=2	=2
1D	seu-	1.d	seul-	1b-	seul-
1D	-le-	.	.	[1a	-le-
.	.	4c	-le-	.	.
.	.	4B-	.	.	.
=3	=3	=3	=3	=3	=3
1.D	-ment	1A	-ment	2a]	.
.	.	.	.	2f	.
.	.	1d	.	2.f	-ment
4C	.	.	.	.	.
4BB-	.	.	.	4g	.
=4	=4	=4	=4	=4	=4
1AA	.	1.c	.	4a	.
.	.	.	.	4b-	.
.	.	.	.	1cc	.
1AA	l'at-	.	.	.	.
.	.	2d	con-	4b-	con-
.	.	.	.	4a	.
=5	=5	=5	=5	=5	=5
1C	-ten-	1e-i	-tre	1g	-tre
1D	-te	1d	ce	1f	ce
=6	=6	=6	=6	=6	=6
1E	que	2c	qu'ay	1g	qu'ay
.	.	2B-	.	.	.
1F	je	1A	.	1a	pro-
=7	=7	=7	=7	=7	=7
1.G	meu-	2r	.	1.b-	.
.	.	2d	pro-	.	.
.	.	2B-	.	.	.
2F	.	[2c	.	2a	.
=8	=8	=8	=8	=8	=8
2E	.	2c]	.	1b-	.
2D	.	2d	.	.	.
1C	-re,	2e-i	.	2.cc	.
.	.	[2c	.	.	.
.	.	.	.	4b-	.
=9	=9	=9	=9	=9	=9
1r	.	4c]	.	4a	.
.	.	4B-	.	4g	.
.	.	2G	.	1g	.
1D	En	1A	.	.	.
.	.	.	.	2f#i	.
=10	=10	=10	=10	=10	=10
1BB-	mon	0G	-mys,	1g	-mys,
1GG	.	.	.	1r	.
=11	=11	=11	=11	=11	=11
0AA	las	1r	.	1cc	Et
.	.	1F	Et	1cc	en
=12	=12	=12	=12	=12	=12
1GG	cueur	1G	en	1b-	tous
1D	nul	2A	tous	2a	.
.	.	[2B-	.	2f	.
=13	=13	=13	=13	=13	=13
1E	.	2B-]	.	1g	lieux
.	.	2c	.	.	.
1F	es-	1A	.	1cc	se-
=14	=14	=14	=14	=14	=14
1G	-poir	1G	lieux	1b-	-ray
1A	.	2r	.	2.a	.
.	.	2F	se-	.	.
.	.	.	.	4f	.
=15	=15	=15	=15	=15	=15
1B-	ne	2E	-ray	2g	.
.	.	1D	.	2f	.
1B-	de-	.	.	[1d	.
.	.	[2G	.	.	.
=16	=16	=16	=16	=16	=16
1B-	-meu-	2G]	.	1d]	.
.	.	4F#i	.	.	.
.	.	4E	.	.	.
1A	.	1F#i	.	1r	.
=17	=17	=17	=17	=17	=17
1.G	.	1G	fort,	1.dd	fort
.	.	1r	.	.	.
4F	.	.	.	4cc	.
4E	.	.	.	4b-	.
=18	=18	=18	=18	=18	=18
[0F	-re,	1.c	fort	0a	.
.	.	[2d	.	.	.
=19	=19	=19	=19	=19	=19
0F]	.	2d]	.	1a	en-
.	.	2c	.	.	.
.	.	1A	en-	1cc	.
=20	=20	=20	=20	=20	=20
0r	.	2.G	-tre-	2.b-	-tre-
.	.	4F	.	4a	.
.	.	2.B-	.	4g	.
.	.	.	.	4f	.
.	.	.	.	[2b-	.
.	.	4c	.	.	.
=21	=21	=21	=21	=21	=21
1r	.	2d	-mis,	4b-]	.
.	.	.	.	4a	.
.	.	2B-	.	2b-	.
1F	Car	2r	.	2cc	.
.	.	2f	en-	[2dd	.
=22	=22	=22	=22	=22	=22
1G	mon	2d	.	2dd]	.
.	.	1e-i	-tre-	2b-	.
1A	ma-	.	.	1cc	.
.	.	2c	.	.	.
=23	=23	=23	=23	=23	=23
1.B-	-leur	2.B-	.	1.dd	-mis
.	.	4c	.	.	.
.	.	2d	.	.	.
4A	.	2eni	.	4cc	.
4G	.	.	.	4b-	.
=24	=24	=24	=24	=24	=24
0F	.	1f	-mis;	0a	.
.	.	1r	.	.	.
=25	=25	=25	=25	=25	=25
1F	si	2.f	Et	0r	.
.	.	4e	.	.	.
1F	tres-	2c	.	.	.
.	.	[2d	ac-	.	.
=26	=26	=26	=26	=26	=26
0G	-fort	4d]	.	0r	.
.	.	4c	.	.	.
.	.	2A	.	.	.
.	.	1B-	-quer-	.	.
=27	=27	=27	=27	=27	=27
0A	me	1A	-ray.	0f	Et
.	.	1r	.	.	.
=28	=28	=28	=28	=28	=28
1G	tour-	1B-	Et	1g	ac-
1F	.	2A	ac-	1a	-quer-
.	.	[2d	.	.	.
=29	=29	=29	=29	=29	=29
0E-i	-men-	2d]	.	2b-	-ray,
.	.	2c	-quer-	2.cc	.
.	.	2.c	-ray,	.	.
.	.	.	.	4b-	.
.	.	.	.	4a	.
.	.	4B-	.	4g	.
=30	=30	=30	=30	=30	=30
[0D	-te&	2.d	.	2b-	.
.	.	.	.	1a	.
.	.	4e	.	.	.
.	.	[1f	.	.	.
.	.	.	.	[2dd	a-
=31	=31	=31	=31	=31	=31
0D_	.	2f]	.	4dd]	.
.	.	.	.	4cc	.
.	.	2d	a-	4b-	-quer-
.	.	.	.	4a	.
.	.	2.d	-quer-	2b-	-ray
.	.	.	.	2a	.
.	.	4c	.	.	.
=32	=32	=32	=32	=32	=32
0D]	.	2B-	-ray	2r	.
.	.	2A	.	1a	u-
.	.	2r	.	.	.
.	.	[2d	u-	2f	.
0r	.	2d]	.	2.e	-ne
.	.	2c	.	.	.
.	.	.	.	4d	.
.	.	1d	-ne	1f	.
=34	=34	=34	=34	=34	=34
0r	.	2e	belle	2g	belle
.	.	2d	.	1a	.
.	.	2.f	.	.	.
.	.	.	.	[2cc	.
.	.	4e	.	.	.
=35	=35	=35	=35	=35	=35
0r	.	4d	.	2cc]	.
.	.	4c	.	.	.
.	.	2d	.	2b-	.
.	.	2c	.	1a	.
.	.	[2A	.	.	.
=36	=36	=36	=36	=36	=36
0r	.	2A]	.	1dd	a-
.	.	2G	a-	.	.
.	.	2A	-li-	2cc	-li-
.	.	2B-	.	[2b-	-an-
=37	=37	=37	=37	=37	=37
0r	.	2c	-an-	4b-]	.
.	.	.	.	4a	.
.	.	2d	.	1a	.
.	.	1B-	.	.	.
.	.	.	.	2g	.
=38	=38	=38	=38	=38	=38
0F	Qu'il	1A	-ce.	0a	-ce.
.	.	1r	.	.	.
=39	=39	=39	=39	=39	=39
*>B	*>B	*>B	*>B	*>B	*>B
1G	n'est	1d	J'en	1r	.
1G	dou-	1B-	ay	1g	J'en
=40	=40	=40	=40	=40	=40
1F	-leur	1c	.	1a	ay
1D	que	1d	de-	1f	.
=41	=41	=41	=41	=41	=41
1E-	par	2B-	.	1g	.
.	.	2.c	-sir	.	.
1E-i	vous	.	.	1g	de-
.	.	4B-	.	.	.
.	.	4A	.	.	.
.	.	4G	.	.	.
=42	=42	=42	=42	=42	=42
1D	je	1F	.	1a	-sir
1BB-	.	2F	voi-	1d	.
.	.	[2G	.	.	.
=43	=43	=43	=43	=43	=43
0C	ne	4G]	.	1e	.
.	.	4F	.	.	.
.	.	4E	.	.	.
.	.	4D	.	.	.
.	.	2G	.	1e	voi-
.	.	2A	.	.	.
=44	=44	=44	=44	=44	=44
1.BB-	sen-	2.B-	-re	1d	-re
.	.	4G	.	.	.
.	.	2F	.	2r	.
4AA	.	2G	.	[2dd	dez
4GG	.	.	.	.	.
=45	=45	=45	=45	=45	=45
1FF	-te,	1A	dez	2dd]	.
.	.	.	.	2cc	.
1r	.	1G	.	2b-	mon
.	.	.	.	2g	en-
=46	=46	=46	=46	=46	=46
0F	Pour-	2r	.	1.a	-fan-
.	.	1c	mon	.	.
.	.	2A	en-	2f	.
=47	=47	=47	=47	=47	=47
1D	-ce	2B-	-fan-	1f	-ce;
.	.	2A	.	.	.
1D	que	[1d	-ce;	1r	.
=48	=48	=48	=48	=48	=48
0BB-	suis	1d]	.	1f	Point
.	.	1r	.	1g	.
=49	=49	=49	=49	=49	=49
1.AA	de	1.c	Point	1.a	.
2BB-	.	4B-	ne	4g	ne
.	.	4A	.	4f	.
=50	=50	=50	=50	=50	=50
1C	.	1G	voul-	1e	voul-
1D	vous	1F	.	2f	.
.	.	.	.	[2a	.
=51	=51	=51	=51	=51	=51
2C	per-	1G	.	4a]	.
.	.	.	.	4g	.
2BB-	.	.	.	1g	.
1AA	-dre	1A	.	.	.
.	.	.	.	4f#i	.
.	.	.	.	4e	.
=52	=52	=52	=52	=52	=52
1r	.	1D	-droye	1f#i	.
[1GG	bien	2r	.	1g	-droye
.	.	2E	a-	.	.
=53	=53	=53	=53	=53	=53
1GG]	.	2D	.	2r	.
.	.	2.d	.	2.b-	a-
[1BB-	seu-	.	.	.	.
.	.	4c	.	4a	.
.	.	4B-	.	4g	.
.	.	4A	.	4f	.
=54	=54	=54	=54	=54	=54
2BB-]	.	1B-	-voir	1g	-voir
2C	.	.	.	.	.
[1D	.	1A	.	1f	.
=55	=55	=55	=55	=55	=55
2D]	.	1B-	nulz,	2r	.
2E	.	.	.	2g	nulz
[1F	.	1A	.	2f	.
.	.	.	.	[2a	.
=56	=56	=56	=56	=56	=56
2F]	.	2r	.	4a]	.
.	.	.	.	4b-	.
2E	.	1A	nulz,	1cc	.
[1C	.	.	.	.	.
.	.	4G	.	4b-	.
.	.	4F	.	4a	.
=57	=57	=57	=57	=57	=57
2C]	.	2E	.	2g	.
2D	.	2D	.	2f	.
2E	.	2r	.	1b-	.
2F	.	2d	nulz	.	.
=58	=58	=58	=58	=58	=58
1.G	.	2e-i	.	2r	.
.	.	2.d	.	1b-	e-
.	.	4B-	.	.	.
2F	.	2c	.	4a	.
.	.	.	.	4g	.
=59	=59	=59	=59	=59	=59
2D	.	2d	.	2f	.
2C	.	2G	.	2g	.
1F	.	2r	.	1a	.
.	.	2F	e-	.	.
=60	=60	=60	=60	=60	=60
2E	.	2G	.	2g	.
1D	.	2F	.	2.a	.
.	.	2B-	.	.	.
.	.	.	.	8gL	.
.	.	.	.	8fJ	.
2C	.	2c	.	4.e	.
.	.	.	.	8d	.
=61	=61	=61	=61	=61	=61
[0D	.	2A	.	2.f	.
.	.	2.d	.	.	.
.	.	.	.	4g	.
.	.	.	.	2a	.
.	.	4c	.	.	.
.	.	4B-	.	[2b-	.
.	.	4A	.	.	.
=62	=62	=62	=62	=62	=62
0D]	.	2.B-	.	4b-]	.
.	.	.	.	4a	.
.	.	.	.	1g	.
.	.	8AL	.	.	.
.	.	8GJ	.	.	.
.	.	1A	-ne-	.	.
.	.	.	.	2f#i	-ne-
=63	=63	=63	=63	=63	=63
0GGl	-re.	0Gl	-mys.	0gl	-mys.
==	==	==	==	==	==
!!!RDF**kern: l = long note in original notation
!!!RDF**kern: i = editorial accidental
!!!RDF**kern: V = start of tuplet marker
!!!RDF**kern: Z = end of tuplet marker
!!!RDF**kern: N = signum congruentiae
!!!ENC: Jesse Rodin 16 April 2018
!!!END: 2018/07/15/
!!!EED: Jesse Rodin
!!!EEV: 2018/07/23/
!!!ONB: Translated from MusicXML and edited on 2018/07/23/ by Craig Sapp
!!muse2ps: C^@{COM}^i2I150v95,95,120Q16l2500c85z18
!!!COM: Ockeghem, Johannes
!!!CDT: ~1425-1497/02/06
!!!OTL: Fors seullement contre
!!!AGN: Song; Chanson
!!!SCT: Ock3004
!!!SCA: Ock3004
!!!voices: 3
*thru	*thru	*thru	*thru	*thru	*thru
*staff3	*staff3	*staff2	*staff2	*staff1	*staff1
*Ivox	*	*Ivox	*	*Ivox	*
*I"Contra	*	*I"Tenor	*	*I"Canon Royal	*
*I'C	*	*I'T	*	*I'CR	*
*clefF4	*	*clefGv2	*	*clefG2	*
*k[b-]	*	*k[b-]	*	*k[b-]	*
*M2/1	*	*M2/1	*	*M2/1	*
*met(C|)	*	*met(C|)	*	*met(C|)	*
*>A	*>A	*>A	*>A	*>A	*>A
!!LO:LB:g=z
=64-	=64-	=64-	=64-	=64-	=64-
0D	Vos-	0d	Mon	0a	Mon
=65	=65	=65	=65	=65	=65
1D	-tre	1.d	vou-	1b-	vou-
1D	ri-	.	.	[1a	-loir
.	.	4c	.	.	.
.	.	4B-	.	.	.
=66	=66	=66	=66	=66	=66
1.D	-gueur	1A	-loir	2a]	.
.	.	.	.	2f	.
.	.	1d	.	2.f	j'ay
4C	.	.	.	.	.
4BB-	.	.	.	4g	.
=67	=67	=67	=67	=67	=67
1AA	tel-	1.c	j'ay	4a	.
.	.	.	.	4b-	.
.	.	.	.	1cc	.
1AA	-le-	.	.	.	.
.	.	2d	tout	4b-	tout
.	.	.	.	4a	.
=68	=68	=68	=68	=68	=68
1C	-ment	1e-i	en	1g	en
1D	m'y	1d	ce-	1f	ce-
=69	=69	=69	=69	=69	=69
1E	queurt	2c	-la	1g	-la
.	.	2B-	.	.	.
1F	.	1A	.	1a	soub-
=70	=70	=70	=70	=70	=70
1.G	seu-	2r	.	1.b-	.
.	.	2d	soub-	.	.
.	.	2B-	.	.	.
2F	.	[2c	.	2a	.
=71	=71	=71	=71	=71	=71
2E	.	2c]	.	1b-	.
2D	.	2d	.	.	.
1C	-re	2e-i	.	2.cc	.
.	.	[2c	.	.	.
.	.	.	.	4b-	.
=72	=72	=72	=72	=72	=72
1r	.	4c]	.	4a	.
.	.	4B-	.	4g	.
.	.	2G	.	1g	.
1D	Qu'en	1A	.	.	.
.	.	.	.	2f#i	.
=73	=73	=73	=73	=73	=73
1BB-	ce	0G	-mis	1g	-mis
1GG	.	.	.	1r	.
=74	=74	=74	=74	=74	=74
0AA	par-	1r	.	1cc	Et
.	.	1F	Et	1cc	hors
=75	=75	=75	=75	=75	=75
1GG	-ti	1G	hors	1b-	de
1D	il	2A	de	2a	.
.	.	[2B-	.	2f	.
=76	=76	=76	=76	=76	=76
1E	fault	2B-]	.	1g	l&agrave;
.	.	2c	.	.	.
1F	que	1A	.	1cc	ja
=77	=77	=77	=77	=77	=77
1G	je	1G	l&agrave;	1b-	ne
1A	.	2r	.	2.a	.
.	.	2F	ja	.	.
.	.	.	.	4f	.
=78	=78	=78	=78	=78	=78
1B-	.	2E	ne	2g	.
.	.	1D	.	2f	.
1B-	m'as-	.	.	[1d	.
.	.	[2G	se-	.	.
=79	=79	=79	=79	=79	=79
1B-	-seu-	2G]	.	1d]	.
.	.	4F#i	.	.	.
.	.	4E	.	.	.
1A	.	1F#i	.	1r	.
=80	=80	=80	=80	=80	=80
1.G	.	1G	rai,	1.dd	se-
.	.	1r	.	.	.
4F	.	.	.	4cc	.
4E	.	.	.	4b-	.
=81	=81	=81	=81	=81	=81
[0F	-re,	1.c	se-	0a	.
.	.	[2d	-rai	.	.
=82	=82	=82	=82	=82	=82
0F]	.	2d]	.	1a	-rai
.	.	2c	.	.	.
.	.	1A	.	1cc	.
=83	=83	=83	=83	=83	=83
0r	.	2.G	trans-	2.b-	trans-
.	.	4F	.	4a	.
.	.	2.B-	.	4g	.
.	.	.	.	4f	.
.	.	.	.	[2b-	.
.	.	4c	.	.	.
=84	=84	=84	=84	=84	=84
1r	.	2d	-mis,	4b-]	.
.	.	.	.	4a	.
.	.	2B-	.	2b-	.
1F	Dont	2r	.	2cc	.
.	.	2f	trans-	[2dd	.
=85	=85	=85	=85	=85	=85
1G	je	2d	.	2dd]	.
.	.	1e-i	.	2b-	.
1A	n'ay	.	.	1cc	.
.	.	2c	.	.	.
=86	=86	=86	=86	=86	=86
1.B-	bien	2.B-	-mis;	1.dd	-mis;
.	.	4c	.	.	.
.	.	2d	.	.	.
4A	.	2eni	.	4cc	.
4G	.	.	.	4b-	.
=87	=87	=87	=87	=87	=87
0F	.	1f	.	0a	.
.	.	1r	.	.	.
=88	=88	=88	=88	=88	=88
1F	qui	2.f	Gar-	0r	.
.	.	4e	.	.	.
1F	en	2c	.	.	.
.	.	[2d	.	.	.
=89	=89	=89	=89	=89	=89
0G	riens	4d]	.	0r	.
.	.	4c	.	.	.
.	.	2A	.	.	.
.	.	1B-	-der,	.	.
=90	=90	=90	=90	=90	=90
0A	me	1A	.	0f	Gar-
.	.	1r	.	.	.
=91	=91	=91	=91	=91	=91
1G	con-	1B-	-gar-	1g	-der
1F	.	2A	-der	1a	je
.	.	[2d	.	.	.
=92	=92	=92	=92	=92	=92
0E-i	-ten-	2d]	.	2b-	veul
.	.	2c	je	2.cc	.
.	.	2.c	veul	.	.
.	.	.	.	4b-	.
.	.	.	.	4a	.
.	.	4B-	.	4g	.
=93	=93	=93	=93	=93	=93
[0D	-te&	2.d	.	2b-	.
.	.	.	.	1a	.
.	.	4e	.	.	.
.	.	[1f	.	.	.
.	.	.	.	[2dd	or-
=94	=94	=94	=94	=94	=94
0D_	.	2f]	.	4dd]	.
.	.	.	.	4cc	.
.	.	2d	or-	4b-	.
.	.	.	.	4a	.
.	.	2.d	-dre,	2b-	-dre,
.	.	.	.	2a	.
.	.	4c	.	.	.
=95	=95	=95	=95	=95	=95
0D]	.	2B-	.	2r	.
.	.	2A	.	1a	or-
.	.	2r	.	.	.
.	&	[2d	or-	2f	.
=96	=96	=96	=96	=96	=96
0r	.	2d]	.	2.e	-dre
.	.	2c	.	.	.
.	.	.	.	4d	.
.	.	1d	-dre,	1f	.
=97	=97	=97	=97	=97	=97
0r	.	2e	sens	2g	sens
.	.	2d	.	1a	.
.	.	2.f	.	.	.
.	.	.	.	[2cc	.
.	.	4e	.	.	.
=98	=98	=98	=98	=98	=98
0r	.	4d	.	2cc]	.
.	.	4c	.	.	.
.	.	2d	.	2b-	.
.	.	2c	.	1a	.
.	.	[2A	.	.	.
=99	=99	=99	=99	=99	=99
0r	.	2A]	.	1dd	et
.	.	2G	et	.	.
.	.	2A	pru-	2cc	pru-
.	.	2B-	.	[2b-	-den-
=100	=100	=100	=100	=100	=100
0rN	.	2c	-den-	4b-]	.
.	.	.	.	4a	.
.	.	2d	.	1a	.
.	.	1B-	.	.	.
.	.	.	.	2g	.
=101	=101	=101	=101	=101	=101
0F	.	1AN	-ce.&	0aN	-ce.&
.	.	1r	.	.	.
=	=	=	=	=	=
!!!RDF**kern: l = long note in original notation
!!!RDF**kern: i = editorial accidental
!!!RDF**kern: V = start of tuplet marker
!!!RDF**kern: Z = end of tuplet marker
!!!RDF**kern: N = signum congruentiae
!!!ENC: Jesse Rodin 16 April 2018
!!!END: 2018/07/15/
!!!EED: Jesse Rodin
!!!EEV: 2018/07/23/
!!!ONB: Translated from MusicXML and edited on 2018/07/23/ by Craig Sapp
!!muse2ps: C^@{COM}^i2I150v95,95,120Q16l2500c85z18
!!!COM: Ockeghem, Johannes
!!!CDT: ~1425-1497/02/06
!!!OTL: Fors seullement contre
!!!AGN: Song; Chanson
!!!SCT: Ock3004
!!!SCA: Ock3004
!!!voices: 3
*thru	*thru	*thru	*thru	*thru	*thru
*staff3	*staff3	*staff2	*staff2	*staff1	*staff1
*Ivox	*	*Ivox	*	*Ivox	*
*I"Contra	*	*I"Tenor	*	*I"Canon Royal	*
*I'C	*	*I'T	*	*I'CR	*
*clefF4	*	*clefGv2	*	*clefG2	*
*k[b-]	*	*k[b-]	*	*k[b-]	*
*M2/1	*	*M2/1	*	*M2/1	*
*met(C|)	*	*met(C|)	*	*met(C|)	*
*>A	*>A	*>A	*>A	*>A	*>A
!!LO:LB:g=z
=102-	=102-	=102-	=102-	=102-	=102-
0D	Fors	0d	Fors	0a	Fors
=103	=103	=103	=103	=103	=103
1D	seu-	1.d	seul-	1b-	seul-
1D	-le-	.	.	[1a	-le-
.	.	4c	-le-	.	.
.	.	4B-	.	.	.
=104	=104	=104	=104	=104	=104
1.D	-ment	1A	-ment	2a]	.
.	.	.	.	2f	.
.	.	1d	.	2.f	-ment
4C	.	.	.	.	.
4BB-	.	.	.	4g	.
=105	=105	=105	=105	=105	=105
1AA	.	1.c	.	4a	.
.	.	.	.	4b-	.
.	.	.	.	1cc	.
1AA	l'at-	.	.	.	.
.	.	2d	con-	4b-	con-
.	.	.	.	4a	.
=106	=106	=106	=106	=106	=106
1C	-ten-	1e-i	-tre	1g	-tre
1D	-te	1d	ce	1f	ce
=107	=107	=107	=107	=107	=107
1E	que	2c	qu'ay	1g	qu'ay
.	.	2B-	.	.	.
1F	je	1A	.	1a	pro-
=108	=108	=108	=108	=108	=108
1.G	meu-	2r	.	1.b-	.
.	.	2d	pro-	.	.
.	.	2B-	.	.	.
2F	.	[2c	.	2a	.
=109	=109	=109	=109	=109	=109
2E	.	2c]	.	1b-	.
2D	.	2d	.	.	.
1C	-re,	2e-i	.	2.cc	.
.	.	[2c	.	.	.
.	.	.	.	4b-	.
=110	=110	=110	=110	=110	=110
1r	.	4c]	.	4a	.
.	.	4B-	.	4g	.
.	.	2G	.	1g	.
1D	En	1A	.	.	.
.	.	.	.	2f#i	.
=111	=111	=111	=111	=111	=111
1BB-	mon	0G	-mys,	1g	-mys,
1GG	.	.	.	1r	.
=112	=112	=112	=112	=112	=112
0AA	las	1r	.	1cc	En-
.	.	1F	En-	1cc	-tre
=113	=113	=113	=113	=113	=113
1GG	cueur	1G	-tre	1b-	tous
1D	nul	2A	tous	2a	.
.	.	[2B-	.	2f	.
=114	=114	=114	=114	=114	=114
1E	.	2B-]	.	1g	lieux
.	.	2c	.	.	.
1F	es-	1A	.	1cc	se-
=115	=115	=115	=115	=115	=115
1G	-poir	1G	lieux	1b-	-ray
1A	.	2r	.	2.a	.
.	.	2F	se-	.	.
.	.	.	.	4f	.
=116	=116	=116	=116	=116	=116
1B-	ne	2E	-ray	2g	.
.	.	1D	.	2f	.
1B-	de-	.	.	[1d	.
.	.	[2G	.	.	.
=117	=117	=117	=117	=117	=117
1B-	-meu-	2G]	.	1d]	.
.	.	4F#i	.	.	.
.	.	4E	.	.	.
1A	.	1F#i	.	1r	.
=118	=118	=118	=118	=118	=118
1.G	.	1G	fort,	1.dd	fort
.	.	1r	.	.	.
4F	.	.	.	4cc	.
4E	.	.	.	4b-	.
=119	=119	=119	=119	=119	=119
[0F	-re,	1.c	fort	0a	.
.	.	[2d	.	.	.
=120	=120	=120	=120	=120	=120
0F]	.	2d]	.	1a	ent-
.	.	2c	.	.	.
.	.	1A	ent-	1cc	.
=121	=121	=121	=121	=121	=121
0r	.	2.G	-re-	2.b-	-re-
.	.	4F	.	4a	.
.	.	2.B-	.	4g	.
.	.	.	.	4f	.
.	.	.	.	[2b-	.
.	.	4c	.	.	.
=122	=122	=122	=122	=122	=122
1r	.	2d	-mis,	4b-]	.
.	.	.	.	4a	.
.	.	2B-	.	2b-	.
1F	Car	2r	.	2cc	.
.	.	2f	ent-	[2dd	.
=123	=123	=123	=123	=123	=123
1G	mon	2d	.	2dd]	.
.	.	1e-i	-re-	2b-	.
1A	ma-	.	.	1cc	.
.	.	2c	.	.	.
=124	=124	=124	=124	=124	=124
1.B-	-leur	2.B-	.	1.dd	-mis
.	.	4c	.	.	.
.	.	2d	.	.	.
4A	.	2eni	.	4cc	.
4G	.	.	.	4b-	.
=125	=125	=125	=125	=125	=125
0F	.	1f	-mis;	0a	.
.	.	1r	.	.	.
=126	=126	=126	=126	=126	=126
1F	si	2.f	Et	0r	.
.	.	4e	.	.	.
1F	tres-	2c	.	.	.
.	.	[2d	ac-	.	.
=127	=127	=127	=127	=127	=127
0G	-fort	4d]	.	0r	.
.	.	4c	.	.	.
.	.	2A	.	.	.
.	.	1B-	-quer-	.	.
=128	=128	=128	=128	=128	=128
0A	me	1A	-ray.	0f	Et
.	.	1r	.	.	.
=129	=129	=129	=129	=129	=129
1G	tour-	1B-	Et	1g	ac-
1F	.	2A	ac-	1a	-quer-
.	.	[2d	.	.	.
=130	=130	=130	=130	=130	=130
0E-i	-men-	2d]	.	2b-	-ray,
.	.	2c	-quer-	2.cc	.
.	.	2.c	-ray,	.	.
.	.	.	.	4b-	.
.	.	.	.	4a	.
.	.	4B-	.	4g	.
=131	=131	=131	=131	=131	=131
[0D	-te&	2.d	.	2b-	.
.	.	.	.	1a	.
.	.	4e	.	.	.
.	.	[1f	.	.	.
.	.	.	.	[2dd	a-
=132	=132	=132	=132	=132	=132
0D_	.	2f]	.	4dd]	.
.	.	.	.	4cc	.
.	.	2d	a-	4b-	-quer-
.	.	.	.	4a	.
.	.	2.d	-que-	2b-	-ray
.	.	.	.	2a	.
.	.	4c	.	.	.
=133	=133	=133	=133	=133	=133
0D]	.	2B-	-ray	2r	.
.	.	2A	.	1a	u-
.	.	2r	.	.	.
.	.	[2d	u-	2f	.
=134	=134	=134	=134	=134	=134
0r	.	2d]	.	2.e	-ne
.	.	2c	.	.	.
.	.	.	.	4d	.
.	.	1d	-ne	1f	.
=135	=135	=135	=135	=135	=135
0r	.	2e	belle	2g	belle
.	.	2d	.	1a	.
.	.	2.f	.	.	.
.	.	.	.	[2cc	.
.	.	4e	.	.	.
=136	=136	=136	=136	=136	=136
0r	.	4d	.	2cc]	.
.	.	4c	.	.	.
.	.	2d	.	2b-	.
.	.	2c	.	1a	.
.	.	[2A	.	.	.
=137	=137	=137	=137	=137	=137
0r	.	2A]	.	1dd	a-
.	.	2G	a-	.	.
.	.	2A	-li-	2cc	-li-
.	.	2B-	.	[2b-	-an-
=138	=138	=138	=138	=138	=138
0rN	.	2c	-an-	4b-]	.
.	.	.	.	4a	.
.	.	2d	.	1a	.
.	.	1B-	.	.	.
.	.	.	.	2g	.
=139	=139	=139	=139	=139	=139
0F	Qu'il	1AN	-ce.	0aN	-ce.
.	.	1r	.	.	.
=	=	=	=	=	=
!!!RDF**kern: l = long note in original notation
!!!RDF**kern: i = editorial accidental
!!!RDF**kern: V = start of tuplet marker
!!!RDF**kern: Z = end of tuplet marker
!!!RDF**kern: N = signum congruentiae
!!!ENC: Jesse Rodin 16 April 2018
!!!END: 2018/07/15/
!!!EED: Jesse Rodin
!!!EEV: 2018/07/23/
!!!ONB: Translated from MusicXML and edited on 2018/07/23/ by Craig Sapp
!!muse2ps: C^@{COM}^i2I150v95,95,120Q16l2500c85z18
!!!COM: Ockeghem, Johannes
!!!CDT: ~1425-1497/02/06
!!!OTL: Fors seullement contre
!!!AGN: Song; Chanson
!!!SCT: Ock3004
!!!SCA: Ock3004
!!!voices: 3
*staff3	*staff3	*staff2	*staff2	*staff1	*staff1
*Ivox	*	*Ivox	*	*Ivox	*
*I"Contra	*	*I"Tenor	*	*I"Canon Royal	*
*I'C	*	*I'T	*	*I'CR	*
*clefF4	*	*clefGv2	*	*clefG2	*
*k[b-]	*	*k[b-]	*	*k[b-]	*
*M2/1	*	*M2/1	*	*M2/1	*
*met(C|)	*	*met(C|)	*	*met(C|)	*
*>A	*>A	*>A	*>A	*>A	*>A
!!LO:LB:g=z
=140-	=140-	=140-	=140-	=140-	=140-
0D	Mon	0d	Je	0a	Je
=141	=141	=141	=141	=141	=141
1D	des-	1.d	cuide	1b-	cuide
1D	-con-	.	.	[1a	a-
.	.	4c	a-	.	.
.	.	4B-	.	.	.
=142	=142	=142	=142	=142	=142
1.D	-fort	1A	-voir	2a]	.
.	.	.	.	2f	.
.	.	1d	.	2.f	-voir
4C	.	.	.	.	.
4BB-	.	.	.	4g	.
=143	=143	=143	=143	=143	=143
1AA	.	1.c	.	4a	.
.	.	.	.	4b-	.
.	.	.	.	1cc	.
1AA	tou-	.	.	.	.
.	.	2d	en	4b-	en
.	.	.	.	4a	.
=144	=144	=144	=144	=144	=144
1C	-te	1e-i	ter-	1g	ter-
1D	seu-	1d	.	1f	-re
=145	=145	=145	=145	=145	=145
1E	-le	2c	-re	1g	des
.	.	2B-	.	.	.
1F	je	1A	.	1a	a-
=146	=146	=146	=146	=146	=146
1.G	pleu-	2r	.	1.b-	.
.	.	2d	des	.	.
.	.	2B-	.	.	.
2F	.	[2c	a-	2a	.
=147	=147	=147	=147	=147	=147
2E	.	2c]	.	1b-	.
2D	.	2d	.	.	.
1C	-re,	2e-i	.	2.cc	.
.	.	[2c	.	.	.
.	.	.	.	4b-	.
=148	=148	=148	=148	=148	=148
1r	.	4c]	.	4a	.
.	.	4B-	.	4g	.
.	.	2G	.	1g	.
1D	En	1A	.	.	.
.	.	.	.	2f#i	.
=149	=149	=149	=149	=149	=149
1BB-	mau-	0G	-mys	1g	-mys
1GG	-di-	.	.	1r	.
=150	=150	=150	=150	=150	=150
0AA	-sant	1r	.	1cc	Et
.	.	1F	Et	1cc	que en
=151	=151	=151	=151	=151	=151
1GG	.	1G	que en	1b-	eulx
1D	sur	2A	eulx	2a	.
.	.	[2B-	.	2f	.
=152	=152	=152	=152	=152	=152
1E	.	2B-]	.	1g	ay
.	.	2c	.	.	.
1F	ma	1A	.	1cc	.
=153	=153	=153	=153	=153	=153
1G	foy	1G	ay	1b-	ma
1A	.	2r	.	2.a	.
.	.	2F	ma	.	.
.	.	.	.	4f	.
=154	=154	=154	=154	=154	=154
1B-	a	2E	fi-	2g	.
.	.	1D	.	2f	.
1B-	tou-	.	.	[1d	.
.	.	[2G	-an-	.	.
=155	=155	=155	=155	=155	=155
1B-	-te heu-	2G]	.	1d]	.
.	.	4F#i	.	.	.
.	.	4E	.	.	.
1A	.	1F#i	.	1r	.
=156	=156	=156	=156	=156	=156
1.G	.	1G	-ce,	1.dd	fi-
.	.	1r	.	.	.
4F	.	.	.	4cc	.
4E	.	.	.	4b-	.
=157	=157	=157	=157	=157	=157
[0F	-re	1.c	fi-	0a	-an-
.	.	[2d	-an-	.	.
=158	=158	=158	=158	=158	=158
0F]	.	2d]	.	1a	-ce
.	.	2c	.	.	.
.	.	1A	-ce	1cc	.
=159	=159	=159	=159	=159	=159
0r	.	2.G	re-	2.b-	re-
.	.	4F	.	4a	.
.	.	2.B-	.	4g	.
.	.	.	.	4f	.
.	.	.	.	[2b-	.
.	.	4c	.	.	.
=160	=160	=160	=160	=160	=160
1r	.	2d	-mys,	4b-]	.
.	.	.	.	4a	.
.	.	2B-	.	2b-	.
1F	Ma	2r	.	2cc	.
.	.	2f	re-	[2dd	.
=161	=161	=161	=161	=161	=161
1G	le-	2d	.	2dd]	.
.	.	1e-i	.	2b-	.
1A	-au-	.	.	1cc	.
.	.	2c	.	.	.
=162	=162	=162	=162	=162	=162
1.B-	-t&eacute;,	2.B-	.	1.dd	-mys;
.	.	4c	.	.	.
.	.	2d	.	.	.
4A	.	2eni	.	4cc	.
4G	.	.	.	4b-	.
=163	=163	=163	=163	=163	=163
0F	.	1f	-mys;	0a	.
.	.	1r	.	.	.
=164	=164	=164	=164	=164	=164
1F	qui	2.f	On	0r	.
.	.	4e	.	.	.
1F	tant	2c	.	.	.
.	.	[2d	doibt	.	.
=165	=165	=165	=165	=165	=165
0G	m'a	4d]	.	0r	.
.	.	4c	.	.	.
.	.	2A	.	.	.
.	.	1B-	sca-	.	.
=166	=166	=166	=166	=166	=166
0A	fait	1A	-voir,	0f	On
.	.	1r	.	.	.
=167	=167	=167	=167	=167	=167
1G	do-	1B-	On	1g	doibt
1F	.	2A	doibt	1a	sca-
.	.	[2d	.	.	.
=168	=168	=168	=168	=168	=168
0E-i	-len-	2d]	.	2b-	-voir
.	.	2c	sca-	2.cc	.
.	.	2.c	-voir	.	.
.	.	.	.	4b-	.
.	.	.	.	4a	.
.	.	4B-	.	4g	.
=169	=169	=169	=169	=169	=169
[0D	-te.&	2.d	.	2b-	.
.	.	.	.	1a	.
.	.	4e	.	.	.
.	.	[1f	.	.	.
.	.	.	.	[2dd	que
=170	=170	=170	=170	=170	=170
0D_	.	2f]	.	4dd]	.
.	.	.	.	4cc	.
.	.	2d	que	4b-	.
.	.	.	.	4a	.
.	.	2.d	n'ay,	2b-	n'ay,
.	.	.	.	2a	.
.	.	4c	.	.	.
=171	=171	=171	=171	=171	=171
0D]	.	2B-	.	2r	.
.	.	2A	.	1a	que
.	.	2r	.	.	.
.	.	[2d	que	2f	.
=172	=172	=172	=172	=172	=172
0r	.	2d]	.	2.e	n'ay
.	.	2c	.	.	.
.	.	.	.	4d	.
.	.	1d	n'ay	1f	.
=173	=173	=173	=173	=173	=173
0r	.	2e	nul-	2g	nul-
.	.	2d	.	1a	.
.	.	2.f	.	.	.
.	.	.	.	[2cc	.
.	.	4e	.	.	.
=174	=174	=174	=174	=174	=174
0r	.	4d	.	2cc]	.
.	.	4c	.	.	.
.	.	2d	.	2b-	.
.	.	2c	.	1a	-le
.	.	[2A	-le	.	.
=175	=175	=175	=175	=175	=175
0r	.	2A]	.	1dd	doub-
.	.	2G	doub-	.	.
.	.	2A	-tan-	2cc	-tan-
.	.	2B-	.	[2b-	.
=176	=176	=176	=176	=176	=176
0rN	.	2c	.	4b-]	.
.	.	.	.	4a	.
.	.	2d	.	1a	.
.	.	1B-	.	.	.
.	.	.	.	2g	.
=177	=177	=177	=177	=177	=177
0F	Las,	1AN	-ce,	0aN	-ce,
.	.	1r	.	.	.
=178	=178	=178	=178	=178	=178
*>B	*>B	*>B	*>B	*>B	*>B
1G	que	1d	Ou	1r	.
1G	je	1B-	aul-	1g	Ou
=179	=179	=179	=179	=179	=179
1F	suis	1c	.	1a	aul-
1D	de	1d	.	1f	.
=180	=180	=180	=180	=180	=180
1E-	vi-	2B-	-tre-	1g	.
.	.	2.c	-ment	.	.
1E-i	-vre	.	.	1g	-tre-
.	.	4B-	.	.	.
.	.	4A	.	.	.
.	.	4G	.	.	.
=181	=181	=181	=181	=181	=181
1D	mal	1F	.	1a	-ment
1BB-	.	2F	quer-	1d	.
.	.	[2G	.	.	.
=182	=182	=182	=182	=182	=182
0C	con-	4G]	.	1e	.
.	.	4F	.	.	.
.	.	4E	.	.	.
.	.	4D	.	.	.
.	.	2G	.	1e	quer-
.	.	2A	.	.	.
=183	=183	=183	=183	=183	=183
1.BB-	-ten-	2.B-	-roye	1d	-roye
.	.	4G	.	.	.
.	.	2F	.	2r	.
4AA	.	2G	.	[2dd	ma
4GG	.	.	.	.	.
=184	=184	=184	=184	=184	=184
1FF	-te	1A	ma	2dd]	.
.	.	.	.	2cc	.
1r	.	1G	.	2b-	des-
.	.	.	.	2g	-fi-
=185	=185	=185	=185	=185	=185
0F	Quant	2r	.	1.a	-an-
.	.	1c	des-	.	.
.	.	2A	-fi-	2f	.
=186	=186	=186	=186	=186	=186
1D	de	2B-	-an-	1f	-ce,
.	.	2A	.	.	.
1D	par	[1d	-ce,	1r	.
=187	=187	=187	=187	=187	=187
0BB-	vous	1d]	.	1f	Car
.	.	1r	.	1g	.
=188	=188	=188	=188	=188	=188
1.AA	n'ay	1.c	Car	1.a	.
2BB-	.	4B-	je	4g	je
.	.	4A	.	4f	.
=189	=189	=189	=189	=189	=189
1C	.	1G	sce-	1e	sce-
1D	.	1F	.	2f	.
.	.	.	.	[2a	.
=190	=190	=190	=190	=190	=190
2C	riens	1G	.	4a]	.
.	.	.	.	4g	.
2BB-	.	.	.	1g	.
1AA	.	1A	.	.	.
.	.	.	.	4f#i	.
.	.	.	.	4e	.
=191	=191	=191	=191	=191	=191
1r	.	1D	-ray	1f#i	.
[1GG	qui	2r	.	1g	-ray
.	.	2E	de	.	.
=192	=192	=192	=192	=192	=192
1GG]	.	2D	tout	2r	.
.	.	2.d	.	2.b-	de
[1BB-	me	.	.	.	.
.	.	4c	.	4a	.
.	.	4B-	.	4g	.
.	.	4A	.	4f	.
=193	=193	=193	=193	=193	=193
2BB-]	.	1B-	.	1g	tout
2C	de-	.	.	.	.
[1D	-meu-	1A	hon-	1f	.
=194	=194	=194	=194	=194	=194
2D]	.	1B-	-neur,	2r	.
2E	.	.	.	2g	hon-
[1F	.	1A	.	2f	.
.	.	.	.	[2a	-neur,
=195	=195	=195	=195	=195	=195
2F]	.	2r	.	4a]	.
.	.	.	.	4b-	.
2E	.	1A	hon-	1cc	.
[1C	.	.	.	.	.
.	.	4G	.	4b-	.
.	.	4F	.	4a	.
=196	=196	=196	=196	=196	=196
2C]	.	2E	-neur,	2g	.
2D	.	2D	.	2f	.
2E	.	2r	.	1b-	.
2F	.	2d	hon-	.	.
=197	=197	=197	=197	=197	=197
1.G	.	2e-i	-neur	2r	.
.	.	2.d	.	1b-	hon-
.	.	4B-	.	.	.
2F	.	2c	.	4a	.
.	.	.	.	4g	.
=198	=198	=198	=198	=198	=198
2D	.	2d	.	2f	-neur,
2C	.	2G	.	2g	.
1F	.	2r	.	1a	.
.	.	2F	des-	.	.
=199	=199	=199	=199	=199	=199
2E	.	2G	.	2g	des-
1D	.	2F	.	2.a	.
.	.	2B-	.	.	.
.	.	.	.	8gL	.
.	.	.	.	8fJ	.
2C	.	2c	.	4.e	.
.	.	.	.	8d	.
=200	=200	=200	=200	=200	=200
[0D	.	2A	.	2.f	.
.	.	2.d	.	.	.
.	.	.	.	4g	.
.	.	.	.	2a	.
.	.	4c	.	.	.
.	.	4B-	.	[2b-	.
.	.	4A	.	.	.
=201	=201	=201	=201	=201	=201
0D]	.	2.B-	.	4b-]	.
.	.	.	.	4a	.
.	.	.	.	1g	.
.	.	8AL	.	.	.
.	.	8GJ	.	.	.
.	.	1A	.	.	.
.	.	.	.	2f#i	.
=202	=202	=202	=202	=202	=202
0GGl	-re	0Gl	-mys.	0gl	-mys.
==	==	==	==	==	==
!!!RDF**kern: l = long note in original notation
!!!RDF**kern: i = editorial accidental
!!!RDF**kern: V = start of tuplet marker
!!!RDF**kern: Z = end of tuplet marker
!!!RDF**kern: N = signum congruentiae
!!!ENC: Jesse Rodin 16 April 2018
!!!END: 2018/07/15/
!!!EED: Jesse Rodin
!!!EEV: 2018/07/23/
!!!ONB: Translated from MusicXML and edited on 2018/07/23/ by Craig Sapp
!!muse2ps: C^@{COM}^i2I150v95,95,120Q16l2500c85z18
!!!COM: Ockeghem, Johannes
!!!CDT: ~1425-1497/02/06
!!!OTL: Fors seullement contre
!!!AGN: Song; Chanson
!!!SCT: Ock3004
!!!SCA: Ock3004
!!!voices: 3
*staff3	*staff3	*staff2	*staff2	*staff1	*staff1
*Ivox	*	*Ivox	*	*Ivox	*
*I"Contra	*	*I"Tenor	*	*I"Canon Royal	*
*I'C	*	*I'T	*	*I'CR	*
*clefF4	*	*clefGv2	*	*clefG2	*
*k[b-]	*	*k[b-]	*	*k[b-]	*
*M2/1	*	*M2/1	*	*M2/1	*
*met(C|)	*	*met(C|)	*	*met(C|)	*
*>A	*>A	*>A	*>A	*>A	*>A
!!LO:LB:g=z
=203-	=203-	=203-	=203-	=203-	=203-
0D	Fors	0d	Fors	0a	Fors
=204	=204	=204	=204	=204	=204
1D	seu-	1.d	seul-	1b-	seul-
1D	-le-	.	.	[1a	-le-
.	.	4c	-le-	.	.
.	.	4B-	.	.	.
=205	=205	=205	=205	=205	=205
1.D	-ment	1A	-ment	2a]	.
.	.	.	.	2f	.
.	.	1d	.	2.f	-ment
4C	.	.	.	.	.
4BB-	.	.	.	4g	.
=206	=206	=206	=206	=206	=206
1AA	.	1.c	.	4a	.
.	.	.	.	4b-	.
.	.	.	.	1cc	.
1AA	l'at-	.	.	.	.
.	.	2d	con-	4b-	con-
.	.	.	.	4a	.
=207	=207	=207	=207	=207	=207
1C	-ten-	1e-i	-tre	1g	-tre
1D	-te	1d	ce	1f	ce
=208	=208	=208	=208	=208	=208
1E	que	2c	qu'ay	1g	qu'ay
.	.	2B-	.	.	.
1F	je	1A	.	1a	pro-
=209	=209	=209	=209	=209	=209
1.G	meu-	2r	.	1.b-	.
.	.	2d	pro-	.	.
.	.	2B-	.	.	.
2F	.	[2c	.	2a	.
=210	=210	=210	=210	=210	=210
2E	.	2c]	.	1b-	.
2D	.	2d	.	.	.
1C	-re,	2e-i	.	2.cc	.
.	.	[2c	.	.	.
.	.	.	.	4b-	.
=211	=211	=211	=211	=211	=211
1r	.	4c]	.	4a	.
.	.	4B-	.	4g	.
.	.	2G	.	1g	.
1D	En	1A	.	.	.
.	.	.	.	2f#i	.
=212	=212	=212	=212	=212	=212
1BB-	mon	0G	-mys,	1g	-mys,
1GG	.	.	.	1r	.
=213	=213	=213	=213	=213	=213
0AA	las	1r	.	1cc	En-
.	.	1F	En-	1cc	-tre
=214	=214	=214	=214	=214	=214
1GG	cueur	1G	-tre	1b-	tous
1D	nul	2A	tous	2a	.
.	.	[2B-	.	2f	.
=215	=215	=215	=215	=215	=215
1E	.	2B-]	.	1g	lieux
.	.	2c	.	.	.
1F	es-	1A	.	1cc	se-
=216	=216	=216	=216	=216	=216
1G	-poir	1G	lieux	1b-	-ray
1A	.	2r	.	2.a	.
.	.	2F	se-	.	.
.	.	.	.	4f	.
=217	=217	=217	=217	=217	=217
1B-	ne	2E	-ray	2g	.
.	.	1D	.	2f	.
1B-	de-	.	.	[1d	.
.	.	[2G	.	.	.
=218	=218	=218	=218	=218	=218
1B-	-meu-	2G]	.	1d]	.
.	.	4F#i	.	.	.
.	.	4E	.	.	.
1A	.	1F#i	.	1r	.
=219	=219	=219	=219	=219	=219
1.G	.	1G	fort,	1.dd	fort
.	.	1r	.	.	.
4F	.	.	.	4cc	.
4E	.	.	.	4b-	.
=220	=220	=220	=220	=220	=220
[0F	-re,	1.c	fort	0a	.
.	.	[2d	.	.	.
=221	=221	=221	=221	=221	=221
0F]	.	2d]	.	1a	ent-
.	.	2c	.	.	.
.	.	1A	ent-	1cc	.
=222	=222	=222	=222	=222	=222
0r	.	2.G	-re-	2.b-	-re-
.	.	4F	.	4a	.
.	.	2.B-	.	4g	.
.	.	.	.	4f	.
.	.	.	.	[2b-	.
.	.	4c	.	.	.
=223	=223	=223	=223	=223	=223
1r	.	2d	-mis,	4b-]	.
.	.	.	.	4a	.
.	.	2B-	.	2b-	.
1F	Car	2r	.	2cc	.
.	.	2f	ent-	[2dd	.
=224	=224	=224	=224	=224	=224
1G	mon	2d	.	2dd]	.
.	.	1e-i	-re-	2b-	.
1A	ma-	.	.	1cc	.
.	.	2c	.	.	.
=225	=225	=225	=225	=225	=225
1.B-	-leur	2.B-	.	1.dd	-mis
.	.	4c	.	.	.
.	.	2d	.	.	.
4A	.	2eni	.	4cc	.
4G	.	.	.	4b-	.
=226	=226	=226	=226	=226	=226
0F	.	1f	-mis;	0a	.
.	.	1r	.	.	.
=227	=227	=227	=227	=227	=227
1F	si	2.f	Et	0r	.
.	.	4e	.	.	.
1F	tres-	2c	.	.	.
.	.	[2d	ac-	.	.
=228	=228	=228	=228	=228	=228
0G	-fort	4d]	.	0r	.
.	.	4c	.	.	.
.	.	2A	.	.	.
.	.	1B-	-quer-	.	.
=229	=229	=229	=229	=229	=229
0A	me	1A	-ray.	0f	Et
.	.	1r	.	.	.
=230	=230	=230	=230	=230	=230
1G	tour-	1B-	Et	1g	ac-
1F	.	2A	ac-	1a	-quer-
.	.	[2d	.	.	.
=231	=231	=231	=231	=231	=231
0E-i	-men-	2d]	.	2b-	-ray,
.	.	2c	-quer-	2.cc	.
.	.	2.c	-ray,	.	.
.	.	.	.	4b-	.
.	.	.	.	4a	.
.	.	4B-	.	4g	.
=232	=232	=232	=232	=232	=232
[0D	-te&	2.d	.	2b-	.
.	.	.	.	1a	.
.	.	4e	.	.	.
.	.	[1f	.	.	.
.	.	.	.	[2dd	a-
=233	=233	=233	=233	=233	=233
0D_	.	2f]	.	4dd]	.
.	.	.	.	4cc	.
.	.	2d	a-	4b-	-quer-
.	.	.	.	4a	.
.	.	2.d	-quer-	2b-	-ray
.	.	.	.	2a	.
.	.	4c	.	.	.
=234	=234	=234	=234	=234	=234
0D]	.	2B-	-ray	2r	.
.	.	2A	.	1a	u-
.	.	2r	.	.	.
.	.	[2d	u-	2f	.
=235	=235	=235	=235	=235	=235
0r	.	2d]	.	2.e	-ne
.	.	2c	.	.	.
.	.	.	.	4d	.
.	.	1d	-ne	1f	.
=236	=236	=236	=236	=236	=236
0r	.	2e	belle	2g	belle
.	.	2d	.	1a	.
.	.	2.f	.	.	.
.	.	.	.	[2cc	.
.	.	4e	.	.	.
=237	=237	=237	=237	=237	=237
0r	.	4d	.	2cc]	.
.	.	4c	.	.	.
.	.	2d	.	2b-	.
.	.	2c	.	1a	.
.	.	[2A	.	.	.
=238	=238	=238	=238	=238	=238
0r	.	2A]	.	1dd	a-
.	.	2G	a-	.	.
.	.	2A	-li-	2cc	-li-
.	.	2B-	.	[2b-	-an-
=239	=239	=239	=239	=239	=239
0r	.	2c	-an-	4b-]	.
.	.	.	.	4a	.
.	.	2d	.	1a	.
.	.	1B-	.	.	.
.	.	.	.	2g	.
=240	=240	=240	=240	=240	=240
0F	Qu'il	1A	-ce.	0a	-ce.
.	.	1r	.	.	.
=241	=241	=241	=241	=241	=241
*>B	*>B	*>B	*>B	*>B	*>B
1G	n'est	1d	J'en	1r	.
1G	dou-	1B-	ay	1g	J'en
=242	=242	=242	=242	=242	=242
1F	-leur	1c	.	1a	ay
1D	que	1d	des-	1f	.
=243	=243	=243	=243	=243	=243
1E-	par	2B-	.	1g	.
.	.	2.c	-ir	.	.
1E-i	vous	.	.	1g	des-
.	.	4B-	.	.	.
.	.	4A	.	.	.
.	.	4G	.	.	.
=244	=244	=244	=244	=244	=244
1D	je	1F	.	1a	-ir
1BB-	.	2F	voi-	1d	.
.	.	[2G	.	.	.
=245	=245	=245	=245	=245	=245
0C	ne	4G]	.	1e	.
.	.	4F	.	.	.
.	.	4E	.	.	.
.	.	4D	.	.	.
.	.	2G	.	1e	voi-
.	.	2A	.	.	.
=246	=246	=246	=246	=246	=246
1.BB-	sen-	2.B-	-re	1d	-re
.	.	4G	.	.	.
.	.	2F	.	2r	.
4AA	.	2G	.	[2dd	dez
4GG	.	.	.	.	.
=247	=247	=247	=247	=247	=247
1FF	-te,	1A	dez	2dd]	.
.	.	.	.	2cc	.
1r	.	1G	.	2b-	mon
.	.	.	.	2g	en-
=248	=248	=248	=248	=248	=248
0F	Pour-	2r	.	1.a	-fan-
.	.	1c	mon	.	.
.	.	2A	en-	2f	.
=249	=249	=249	=249	=249	=249
1D	-ce	2B-	-fan-	1f	-ce,
.	.	2A	.	.	.
1D	que	[1d	-ce,	1r	.
=250	=250	=250	=250	=250	=250
0BB-	suis	1d]	.	1f	Point
.	.	1r	.	1g	.
=251	=251	=251	=251	=251	=251
1.AA	de	1.c	Point	1.a	.
2BB-	.	4B-	ne	4g	ne
.	.	4A	.	4f	.
=252	=252	=252	=252	=252	=252
1C	.	1G	voul-	1e	voul-
1D	vous	1F	.	2f	.
.	.	.	.	[2a	.
=253	=253	=253	=253	=253	=253
2C	per-	1G	.	4a]	.
.	.	.	.	4g	.
2BB-	.	.	.	1g	.
1AA	-dre	1A	.	.	.
.	.	.	.	4f#i	.
.	.	.	.	4e	.
=254	=254	=254	=254	=254	=254
1r	.	1D	-droye	1f#i	.
[1GG	bien	2r	.	1g	-droye
.	.	2E	a-	.	.
=255	=255	=255	=255	=255	=255
1GG]	.	2D	.	2r	.
.	.	2.d	.	2.b-	a-
[1BB-	seu-	.	.	.	.
.	.	4c	.	4a	.
.	.	4B-	.	4g	.
.	.	4A	.	4f	.
=256	=256	=256	=256	=256	=256
2BB-]	.	1B-	-voir	1g	-voir
2C	.	.	.	.	.
[1D	.	1A	.	1f	.
=257	=257	=257	=257	=257	=257
2D]	.	1B-	nulz,	2r	.
2E	.	.	.	2g	nulz
[1F	.	1A	.	2f	.
.	.	.	.	[2a	.
=258	=258	=258	=258	=258	=258
2F]	.	2r	.	4a]	.
.	.	.	.	4b-	.
2E	.	1A	nulz,	1cc	.
[1C	.	.	.	.	.
.	.	4G	.	4b-	.
.	.	4F	.	4a	.
=259	=259	=259	=259	=259	=259
2C]	.	2E	.	2g	.
2D	.	2D	.	2f	.
2E	.	2r	.	1b-	.
2F	.	2d	nulz	.	.
=260	=260	=260	=260	=260	=260
1.G	.	2e-i	.	2r	.
.	.	2.d	.	1b-	e-
.	.	4B-	.	.	.
2F	.	2c	.	4a	.
.	.	.	.	4g	.
=261	=261	=261	=261	=261	=261
2D	.	2d	.	2f	.
2C	.	2G	.	2g	.
1F	.	2r	.	1a	.
.	.	2F	e-	.	.
=262	=262	=262	=262	=262	=262
2E	.	2G	.	2g	.
1D	.	2F	.	2.a	.
.	.	2B-	.	.	.
.	.	.	.	8gL	.
.	.	.	.	8fJ	.
2C	.	2c	.	4.e	.
.	.	.	.	8d	.
=263	=263	=263	=263	=263	=263
[0D	.	2A	.	2.f	.
.	.	2.d	.	.	.
.	.	.	.	4g	.
.	.	.	.	2a	.
.	.	4c	.	.	.
.	.	4B-	.	[2b-	.
.	.	4A	.	.	.
=264	=264	=264	=264	=264	=264
0D]	.	2.B-	.	4b-]	.
.	.	.	.	4a	.
.	.	.	.	1g	.
.	.	8AL	.	.	.
.	.	8GJ	.	.	.
.	.	1A	-ne-	.	.
.	.	.	.	2f#i	-ne-
=265	=265	=265	=265	=265	=265
0GGl	-re.	0Gl	-mys.	0gl	-mys.
==	==	==	==	==	==
*-	*-	*-	*-	*-	*-
!!!RDF**kern: l = long note in original notation
!!!RDF**kern: i = editorial accidental
!!!RDF**kern: V = start of tuplet marker
!!!RDF**kern: Z = end of tuplet marker
!!!RDF**kern: N = signum congruentiae
!!!ENC: Jesse Rodin 16 April 2018
!!!END: 2018/07/15/
!!!EED: Jesse Rodin
!!!EEV: 2018/07/23/
!!!ONB: Translated from MusicXML and edited on 2018/07/23/ by Craig Sapp
!!muse2ps: C^@{COM}^i2I150v105,105,150l2600c64z18
